X:60
T:Gillan's reel
R:Reel
O:Scotland
M:4/4
C:P. Milne
K:A
E|\
A2cA B2dB|c2ec dBGB|{G}A2 ce fgaf|edcB AGFE|\
AEAc BEBd|cAce dBGB|
A/A/A ce fgaf|edcB A3||\
g |\
a2fa g2eg|f2df ecBA| \
{g}a2fa gaba| gfe^d e2fg|
{g}agfa {a}gfeg|{g}fedf {f}edcB|\
A/A/A ce fgaf|ecdB AGFE||
